src/images/logo.svg

<?xml version="1.0" encoding="UTF-8"?>
<svg width="128px" height="40px" viewBox="0 0 128 40" version="1.1" xmlns="http://www.w3.org/2000/svg" xmlns:xlink="http://www.w3.org/1999/xlink">
    <title>logo</title>
    <g id="Page-1" stroke="none" stroke-width="1" fill="none" fill-rule="evenodd">
        <g id="logo" fill-rule="nonzero">
            <path d="M0,20 C0,36 4,40 20,40 C36,40 40,36 40,20 C40,4 36,0 20,0 C4,0 0,4 0,20 Z" id="Path" fill="#8247E5"></path>
            <path d="M30.75,19.24 C30.780053,19.3581184 30.780053,19.4818816 30.75,19.6 L29.83,21.79 C29.7381535,22.0278439 29.5303363,22.2016547 29.28,22.25 L26.69,22.71 C26.5016383,22.7449772 26.3071038,22.7034419 26.1494518,22.594587 C25.9917999,22.4857321 25.884032,22.3185347 25.85,22.13 C25.8399963,22.043622 25.8399963,21.956378 25.85,21.87 L26.27,19.67 C26.3261464,19.3686573 26.5669276,19.1359021 26.87,19.09 L29.96,18.63 C30.3429198,18.5934374 30.6885096,18.8602852 30.75,19.24 L30.75,19.24 Z M28.88,20 L27.56,20.19 C27.4612617,20.2074916 27.3825288,20.2822879 27.36,20.38 L27.24,21.05 C27.2253214,21.112589 27.2375075,21.1784648 27.2736049,21.231661 C27.3097023,21.2848571 27.3664159,21.3205178 27.43,21.33 C27.4557215,21.3400407 27.4842785,21.3400407 27.51,21.33 L28.69,21.13 C28.7696994,21.1099956 28.8359515,21.0547855 28.87,20.98 L29.14,20.33 C29.166179,20.2677639 29.1660717,20.197585 29.1397025,20.1354292 C29.1133334,20.0732734 29.0629447,20.0244261 29,20 C28.96047,19.9913278 28.91953,19.9913278 28.88,20 L28.88,20 Z M32.61,14.65 C32.6400812,14.7647276 32.6400812,14.8852724 32.61,15 L31.73,17.21 C31.6387532,17.454536 31.419036,17.627997 31.16,17.66 L27.59,18.18 C27.1961786,18.2338193 26.831679,17.9626672 26.77,17.57 C26.7551027,17.4906935 26.7551027,17.4093065 26.77,17.33 L27.18,15.11 C27.2385717,14.8024238 27.4892061,14.5679594 27.8,14.53 L31.8,14.03 C31.9912235,14.0045782 32.1846506,14.0569542 32.3369213,14.175387 C32.489192,14.2938197 32.5875692,14.4684027 32.61,14.66 L32.61,14.65 Z M30.36,15.37 L28,15.67 C27.8985356,15.6818883 27.8170726,15.7592782 27.8,15.86 L27.66,16.58 C27.6409498,16.708526 27.7235284,16.8302209 27.85,16.86 L28,16.86 L30.16,16.54 C30.2451237,16.5341273 30.3191747,16.4795634 30.35,16.4 L30.64,15.71 C30.6891603,15.5857322 30.6318968,15.4447758 30.51,15.39 C30.4622101,15.3713563 30.4098418,15.3678651 30.36,15.38 L30.36,15.37 Z M35,9 C35.008845,9.13935683 34.9884063,9.2790214 34.94,9.41 L33.7,12.51 C33.5784493,12.8419414 33.2809473,13.0776248 32.93,13.12 L26.44,13.95 C26.1423567,13.9701382 25.8512653,13.8563364 25.6462021,13.6396659 C25.4411389,13.4229953 25.3435207,13.126085 25.38,12.83 L26,9.41 C26.0895171,8.98285181 26.4457052,8.66309206 26.88,8.62 L33.88,8.08 C34.1518959,8.04640435 34.4256687,8.12583092 34.6373676,8.29972643 C34.8490665,8.47362195 34.9801506,8.72675639 35,9 Z M32.23,9.93 L27.28,10.34 L26.91,12.24 L31.79,11.57 C31.9571458,11.5484123 32.099104,11.4371478 32.16,11.28 L32.55,10.38 C32.5861858,10.3021079 32.5884348,10.2126942 32.5562106,10.1330814 C32.5239864,10.0534686 32.4601773,9.99079272 32.38,9.96 L32.23,9.93 Z" id="Shape" fill="#FFC55A"></path>
            <path d="M17.52,10.3199983 L13.45,10.3199983 C12.4263947,10.3186932 11.5494941,11.0522543 11.37,12.06 L8.63,27.52 C8.52509037,28.07595 8.64675129,28.6507699 8.96790904,29.1165426 C9.28906679,29.5823152 9.78307503,29.9003956 10.34,30.0000296 L10.71,30.0000296 L14.81,30.0000296 C15.8032813,29.9634643 16.6363766,29.2386713 16.81,28.26 L17.55,24.11 L19,24.11 L18.39,27.52 C18.1701896,28.6685252 18.9218679,29.7781456 20.07,30.0000296 L20.44,30.0000296 L24.51,30.0000296 C25.5350875,30.0054097 26.4142825,29.2699292 26.59,28.26 L29.33,12.8 C29.5300833,11.6521897 28.7663983,10.5580211 27.62,10.35 C27.4968651,10.3401068 27.3731349,10.3401068 27.25,10.35 L23.15,10.35 C22.1567187,10.3865357 21.3236234,11.1113287 21.15,12.09 L20.44,16.09 L19,16.09 L19.58,12.83 C19.7800833,11.6821897 19.0163983,10.5880211 17.87,10.38 C17.7550457,10.351049 17.6380334,10.3309898 17.52,10.3199983 Z M17.52,11.32 L17.71,11.32 C18.2808296,11.4266378 18.6651517,11.9655723 18.58,12.54 L18.58,12.54 L17.87,16.54 L17.87,16.61 C17.8697512,16.8398863 18.0503624,17.0293077 18.28,17.04 L20.9,17.04 C21.1026201,17.0397757 21.2775912,16.8981324 21.32,16.7 L21.32,16.7 L22.12,12.19 C22.2112066,11.7015513 22.6239191,11.3383643 23.12,11.31 L27.21,11.31 L27.4,11.31 C27.9738724,11.4118456 28.3606738,11.9542567 28.27,12.53 L28.27,12.53 L25.57,28.08 C25.4787934,28.5684487 25.0660809,28.9316357 24.57,28.96 L20.44,28.96 L20.26,28.96 C19.6830044,28.8631232 19.293611,28.3170773 19.39,27.74 L19.39,27.74 L20.12,23.62 C20.12,23.62 20.12,23.62 20.12,23.54 C20.1149737,23.3084736 19.9313441,23.1204719 19.7,23.11 L17.08,23.11 C16.8786993,23.1138917 16.7057211,23.2539218 16.66,23.45 L16.66,23.45 L15.84,28.1 C15.7487934,28.5884487 15.3360809,28.9516357 14.84,28.98 L10.71,28.98 L10.53,28.98 C9.95207185,28.8829306 9.55975195,28.3390326 9.65,27.76 L9.65,27.76 L12.38,12.3 C12.4712066,11.8115513 12.8839191,11.4483643 13.38,11.42 L17.47,11.42 L17.52,11.32 Z" id="Shape" fill="#8247E5"></path>
            <path d="M17.52,11.36 L13.45,11.36 C12.9297045,11.356728 12.4823798,11.72796 12.39,12.24 L9.66,27.7 C9.6076436,27.9787071 9.6691467,28.2667719 9.83075989,28.4997956 C9.99237307,28.7328192 10.2406188,28.891369 10.52,28.9400139 L10.71,28.9400139 L14.78,28.9400139 C15.2980068,28.9426352 15.7420421,28.5704914 15.83,28.06 L16.66,23.4 C16.6982657,23.197894 16.8743068,23.051193 17.08,23.05 L19.7,23.05 C19.8131454,23.0499679 19.9215179,23.0955879 20.0005771,23.1765294 C20.0796362,23.2574709 20.1226939,23.3668867 20.12,23.48 L20.12,23.55 L19.39,27.68 C19.3376436,27.9587071 19.3991467,28.2467719 19.5607599,28.4797956 C19.7223731,28.7128192 19.9706188,28.871369 20.25,28.92 L20.44,28.92 L24.51,28.92 C25.0288438,28.9193658 25.4739181,28.5498701 25.57,28.04 L28.3,12.62 C28.3521765,12.3398194 28.2893311,12.0504314 28.1256433,11.8171293 C27.9619556,11.5838272 27.7112168,11.4262676 27.43,11.38 C27.3704071,11.3701152 27.3095929,11.3701152 27.25,11.38 L23.18,11.38 C22.6597045,11.3765961 22.2123798,11.74796 22.12,12.26 L21.32,16.76 C21.2860096,16.9660769 21.108851,17.1179271 20.9,17.12 L18.28,17.12 C18.1668546,17.1200321 18.0584821,17.0744121 17.9794229,16.9934706 C17.9003638,16.9125291 17.8573061,16.8031133 17.86,16.69 L17.86,16.61 L18.57,12.61 C18.6193677,12.330159 18.5553933,12.0421739 18.3921852,11.8095555 C18.2289772,11.5769372 17.9799417,11.4187932 17.7,11.37 C17.6409584,11.356728 17.5801416,11.3534104 17.52,11.36 Z" id="Path" fill="#FFFFFF"></path>
            <path d="M50.79,27 L59.79,27 L59.79,24.4 L53.67,24.4 L53.67,21.22 L58.89,21.22 L58.89,18.7 L53.67,18.7 L53.67,15.6 L59.75,15.6 L59.75,13 L50.75,13 L50.79,27 Z M71.18,27 L67.52,21.9 L71.08,16.9 L68,16.9 L65.9,19.84 L63.84,16.9 L60.7,16.9 L64.32,21.9 L60.68,27 L63.78,27 L65.94,24 L68.06,27 L71.18,27 Z M78.18,16.64 C77.0225613,16.6216908 75.9192541,17.1292121 75.18,18.02 L74.8,16.92 L72.42,16.92 L72.42,30.92 L75.26,30.92 L75.26,26 C76.0068975,26.8320867 77.0823527,27.2929961 78.2,27.26 C79.5549432,27.2347421 80.8416003,26.6605765 81.7653227,25.6689888 C82.689045,24.6774011 83.1707047,23.3533329 83.1,22 C83.1818533,20.6274298 82.7015966,19.2806527 81.7697393,18.2695686 C80.837882,17.2584846 79.5346777,16.6701704 78.16,16.64 L78.18,16.64 Z M77.76,19.2 C78.470143,19.2194179 79.1408556,19.5307949 79.6139988,20.0607154 C80.087142,20.5906358 80.3208429,21.2922018 80.26,22 C80.293313,22.7355562 80.0345079,23.4544594 79.54,24 C79.0852875,24.5162835 78.427925,24.8084446 77.74,24.8 C77.0292658,24.7869545 76.356521,24.4766741 75.8851998,23.9445373 C75.4138786,23.4124005 75.1871157,22.7071076 75.26,22 C75.1871157,21.2928924 75.4138786,20.5875995 75.8851998,20.0554627 C76.356521,19.5233259 77.0292658,19.2130455 77.74,19.2 L77.76,19.2 Z M84.76,27 L87.6,27 L87.6,13 L84.78,13 L84.76,27 Z M94.56,27.28 C95.9669178,27.3018166 97.3226196,26.7525411 98.3175803,25.7575803 C99.3125411,24.7626196 99.8618166,23.4069178 99.84,22 C99.84,19.0894594 97.4805406,16.73 94.57,16.73 C91.6594594,16.73 89.3,19.0894594 89.3,22 C89.2781834,23.4069178 89.8274589,24.7626196 90.8224197,25.7575803 C91.8173804,26.7525411 93.1730822,27.3018166 94.58,27.28 L94.56,27.28 Z M94.56,24.64 C93.8830929,24.6279081 93.2408207,24.3384983 92.7833449,23.8394338 C92.3258691,23.3403693 92.0932958,22.6754022 92.14,22 C92.0814857,21.3145473 92.3114909,20.6357471 92.774631,20.1270521 C93.2377712,19.6183572 93.8920793,19.3258626 94.58,19.32 C95.2604649,19.3428234 95.9024647,19.6410985 96.3587604,20.1464178 C96.8150562,20.6517371 97.0464958,21.3207419 97,22 C97.0437849,22.674689 96.8102112,23.3380065 96.3533482,23.8364025 C95.8964851,24.3347985 95.2559432,24.6250618 94.58,24.64 L94.56,24.64 Z M101.52,27 L104.36,27 L104.36,21.58 C104.36,20.12 105.14,19.3 106.26,19.3 C106.659368,19.2714461 107.055999,19.3847692 107.38,19.62 L108.38,17.1 C107.870184,16.7844725 107.27936,16.6246026 106.68,16.64 C105.685849,16.6187707 104.758783,17.1397665 104.26,18 L103.84,16.9 L101.52,16.9 L101.52,27 Z M118.43,22.84 L118.43,21.84 C118.43,18.76 116.6,16.5999251 113.65,16.5999251 C112.238688,16.5923738 110.886817,17.16765 109.913768,18.1899198 C108.940718,19.2121897 108.432797,20.5907801 108.51,22 C108.466634,23.397761 108.99245,24.7532658 109.967052,25.7561449 C110.941654,26.759024 112.281571,27.3233827 113.68,27.32 C115.680037,27.4729747 117.535195,26.2689645 118.21,24.38 L115.85,23.68 C115.472392,24.5291916 114.607723,25.0551653 113.68,25 C112.43943,25.0131307 111.380023,24.1075089 111.2,22.88 L118.43,22.84 Z M111.21,20.9 C111.406592,19.7031771 112.468461,18.8433634 113.68,18.9 C114.850228,18.8667881 115.850394,19.7364972 115.98,20.9 L111.21,20.9 Z M120.12,27 L123,27 L123,21.58 C123,20.12 123.78,19.3 124.9,19.3 C125.299368,19.2714461 125.695999,19.3847692 126.02,19.62 L127.02,17.1 C126.510184,16.7844725 125.91936,16.6246026 125.32,16.64 C124.311687,16.6039169 123.365682,17.1269116 122.86,18 L122.44,16.9 L120.12,16.9 L120.12,27 Z" id="Shape" fill="#2B2B2B"></path>
        </g>
    </g>
</svg>

<svg xmlns="http://www.w3.org/2000/svg" width="127" height="40" viewBox="0 0 126.98 40">
<defs><style>.cls-1{fill:#fff;}.cls-2{fill:#ffa600;opacity:0.7;isolation:isolate;}.cls-3{fill:#e75a2b;}.cls-4{fill:#2b2b2b;}</style></defs>
<g id="Layer_2" data-name="Layer 2">
<g id="Layer_1-2" data-name="Layer 1">
<path class="cls-1" d="M0,20C0,36,4,40,20,40s20-4,20-20S36,0,20,0,0,4,0,20Z"/>
<path class="cls-2" d="M30.75,19.24a.73.73,0,0,1,0,.36l-.92,2.19a.74.74,0,0,1-.55.46l-2.59.46a.72.72,0,0,1-.84-.58,1.13,1.13,0,0,1,0-.26l.42-2.2a.72.72,0,0,1,.6-.58l3.09-.46A.73.73,0,0,1,30.75,19.24ZM28.88,20l-1.32.19a.25.25,0,0,0-.2.19l-.12.67a.23.23,0,0,0,.19.28.11.11,0,0,0,.08,0l1.18-.2a.27.27,0,0,0,.18-.15l.27-.65A.25.25,0,0,0,29,20,.28.28,0,0,0,28.88,20Zm3.73-5.35a.69.69,0,0,1,0,.35l-.88,2.21a.7.7,0,0,1-.57.45l-3.57.52a.73.73,0,0,1-.82-.61.65.65,0,0,1,0-.24l.41-2.22a.72.72,0,0,1,.62-.58l4-.5A.72.72,0,0,1,32.61,14.66Zm-2.25.72L28,15.67a.23.23,0,0,0-.2.19l-.14.72a.25.25,0,0,0,.19.28H28l2.16-.32a.22.22,0,0,0,.19-.14l.29-.69a.25.25,0,0,0-.13-.32A.25.25,0,0,0,30.36,15.38ZM35,9a1,1,0,0,1-.06.41l-1.24,3.1a.94.94,0,0,1-.77.61l-6.49.83a1,1,0,0,1-1.06-1.12L26,9.41a1,1,0,0,1,.88-.79l7-.54A1,1,0,0,1,35,9Zm-2.77.93-4.95.41-.37,1.9,4.88-.67a.46.46,0,0,0,.37-.29l.39-.9a.31.31,0,0,0-.17-.42Z"/><path class="cls-1" d="M17.52,10.32H13.45a2.11,2.11,0,0,0-2.08,1.74L8.63,27.52A2.12,2.12,0,0,0,10.34,30l.37,0h4.1a2.11,2.11,0,0,0,2-1.74l.74-4.15H19l-.61,3.41A2.12,2.12,0,0,0,20.07,30l.37,0h4.07a2.1,2.1,0,0,0,2.08-1.74L29.33,12.8a2.12,2.12,0,0,0-1.71-2.45,2.31,2.31,0,0,0-.37,0h-4.1a2.11,2.11,0,0,0-2,1.74l-.71,4H19l.58-3.26a2.12,2.12,0,0,0-1.71-2.45A2.31,2.31,0,0,0,17.52,10.32Zm0,1,.19,0a1.08,1.08,0,0,1,.87,1.22v0l-.71,4v.07a.43.43,0,0,0,.41.43H20.9a.43.43,0,0,0,.42-.34h0l.8-4.51a1.08,1.08,0,0,1,1-.88h4.09l.19,0a1.07,1.07,0,0,1,.87,1.22v0L25.57,28.08a1.08,1.08,0,0,1-1,.88H20.44l-.18,0a1.06,1.06,0,0,1-.87-1.22v0l.73-4.12s0,0,0-.08a.44.44,0,0,0-.42-.43H17.08a.44.44,0,0,0-.42.34v0l-.82,4.65a1.08,1.08,0,0,1-1,.88H10.71l-.18,0a1.07,1.07,0,0,1-.88-1.22v0l2.73-15.46a1.08,1.08,0,0,1,1-.88h4.09Z"/><path class="cls-3" d="M17.52,11.36H13.45a1.07,1.07,0,0,0-1.06.88L9.66,27.7a1.06,1.06,0,0,0,.86,1.24l.19,0h4.07a1.06,1.06,0,0,0,1.05-.88l.83-4.66a.43.43,0,0,1,.42-.35H19.7a.42.42,0,0,1,.42.43v.07l-.73,4.13a1.06,1.06,0,0,0,.86,1.24l.19,0h4.07a1.08,1.08,0,0,0,1.06-.88L28.3,12.62a1.06,1.06,0,0,0-.87-1.24.55.55,0,0,0-.18,0H23.18a1.07,1.07,0,0,0-1.06.88l-.8,4.5a.43.43,0,0,1-.42.36H18.28a.42.42,0,0,1-.42-.43v-.08l.71-4a1.07,1.07,0,0,0-.87-1.24A.55.55,0,0,0,17.52,11.36Z"/><path class="cls-4" d="M50.79,27h9V24.4H53.67V21.22h5.22V18.7H53.67V15.6h6.08V13h-9Zm20.39,0-3.66-5.1,3.56-5H68l-2.1,2.94-2.06-2.94H60.7l3.62,5L60.68,27h3.1l2.16-3,2.12,3Zm7-10.36a3.82,3.82,0,0,0-3,1.38l-.38-1.1H72.42v14h2.84V26a3.8,3.8,0,0,0,2.94,1.26A5,5,0,0,0,83.1,22,5.06,5.06,0,0,0,78.16,16.64Zm-.42,2.56A2.58,2.58,0,0,1,80.26,22a2.79,2.79,0,0,1-.72,2,2.36,2.36,0,0,1-1.8.8A2.54,2.54,0,0,1,75.26,22,2.54,2.54,0,0,1,77.74,19.2Zm7,7.8h2.84V13H84.78Zm9.8.28A5.2,5.2,0,0,0,99.84,22,5.27,5.27,0,1,0,89.3,22,5.2,5.2,0,0,0,94.58,27.28Zm0-2.64A2.47,2.47,0,0,1,92.14,22a2.47,2.47,0,0,1,2.44-2.68A2.51,2.51,0,0,1,97,22,2.48,2.48,0,0,1,94.58,24.64ZM101.52,27h2.84V21.58c0-1.46.78-2.28,1.9-2.28a1.7,1.7,0,0,1,1.12.32l1-2.52a3.08,3.08,0,0,0-1.7-.46A2.73,2.73,0,0,0,104.26,18l-.42-1.1h-2.32Zm16.91-4.16v-1c0-3.08-1.83-5.24-4.78-5.24A5.12,5.12,0,0,0,108.51,22a5.16,5.16,0,0,0,5.17,5.32,4.45,4.45,0,0,0,4.53-2.94l-2.36-.7A2.23,2.23,0,0,1,113.68,25a2.48,2.48,0,0,1-2.48-2.12Zm-7.22-1.94a2.39,2.39,0,0,1,2.47-2,2.25,2.25,0,0,1,2.3,2Zm8.91,6.1H123V21.58c0-1.46.78-2.28,1.9-2.28a1.7,1.7,0,0,1,1.12.32l1-2.52a3.08,3.08,0,0,0-1.7-.46A2.73,2.73,0,0,0,122.86,18l-.42-1.1h-2.32Z"/>
</g></g></svg>
